src/pos-icons/plus-thick.svg

<svg height="24" viewBox="0 0 24 24" width="24" xmlns="http://www.w3.org/2000/svg"><path d="m20 14h-6v6h-4v-6h-6v-4h6v-6h4v6h6z"/></svg>

<?xml version="1.0" encoding="UTF-8"?><!DOCTYPE svg PUBLIC "-//W3C//DTD SVG 1.1//EN" "http://www.w3.org/Graphics/SVG/1.1/DTD/svg11.dtd"><svg xmlns="http://www.w3.org/2000/svg" xmlns:xlink="http://www.w3.org/1999/xlink" version="1.1" id="mdi-plus-thick" width="24" height="24" viewBox="0 0 24 24"><path d="M20 14H14V20H10V14H4V10H10V4H14V10H20V14Z" /></svg>
